btlcenter/img/icon_photo.svg

<svg fill="none" height="50" viewBox="0 0 50 50" width="50" xmlns="http://www.w3.org/2000/svg" xmlns:xlink="http://www.w3.org/1999/xlink"><clipPath id="a"><path d="m0 0h50v50h-50z"/></clipPath><g clip-path="url(#a)" fill="#000"><path d="m37.5469 17.2656c-.4744 0-.8594.385-.8594.8594s.385.8594.8594.8594.8593-.385.8593-.8594-.3849-.8594-.8593-.8594z"/><path d="m44.4219 13.8281h-9.4377l-2.7247-5.44953c-.4398-.87923-1.3234-1.42545-2.3061-1.42545h-9.9068c-.9829 0-1.8665.54622-2.3061 1.42554l-2.7247 5.44944h-1.7033v-.8593c0-1.4216-1.1565-2.5782-2.5781-2.5782h-1.71878c-1.42157 0-2.57812 1.1566-2.57812 2.5782v.8593h-.85938c-1.42157 0-2.57812 1.1566-2.57812 2.5781v24.0626c0 1.4215 1.15655 2.5781 2.57812 2.5781h38.84378c1.4216 0 2.5781-1.1566 2.5781-2.5781 0-2.3354 0-23.1541 0-24.0626 0-1.4215-1.1565-2.5781-2.5781-2.5781zm-25.144-4.68082c.1466-.29322.4411-.4754.7687-.4754h9.9068c.3276 0 .6222.18218.7688.4754l2.3405 4.68082h-16.1254zm-11.12165 3.82152c0-.4739.38552-.8594.85937-.8594h1.71878c.4738 0 .8594.3855.8594.8594v.8593h-3.43755zm-3.4375 9.4445h10.86685c-1.1421 1.7841-1.7575 3.8751-1.7575 6.0242 0 2.1493.6155 4.2318 1.7574 6.0156h-10.86675zm20.28125-3.4289c5.1677 0 9.4531 4.1868 9.4531 9.4531 0 5.2604-4.2794 9.4531-9.4531 9.4531-5.1783 0-9.4531-4.1973-9.4531-9.4531 0-5.2598 4.2788-9.4531 9.4531-9.4531zm20.2812 21.4844c0 .4738-.3855.8593-.8593.8593h-38.84378c-.47385 0-.85937-.3855-.85937-.8593v-4.2969h12.22255c2.0999 2.189 5.0144 3.4375 8.0587 3.4375 3.0449 0 5.9596-1.2489 8.0588-3.4375h12.2224zm0-6.0157h-10.8668c1.1421-1.7841 1.7575-3.8664 1.7575-6.0156s-.6154-4.2315-1.7575-6.0156h10.8668zm0-13.75h-12.2225c-2.0998-2.189-5.0143-3.4375-8.0587-3.4375-3.0448 0-5.9595 1.2489-8.0588 3.4375h-12.22245v-4.2969c0-.4738.38552-.8593.85937-.8593h38.84378c.4738 0 .8593.3855.8593.8593z"/><path d="m27.5781 10.3906h-5.1562c-.4747 0-.8594.3848-.8594.8594s.3847.8594.8594.8594h5.1562c.4746 0 .8594-.3848.8594-.8594s-.3848-.8594-.8594-.8594z"/><path d="m25 20.7031c-4.2647 0-7.7344 3.4697-7.7344 7.7344s3.4697 7.7344 7.7344 7.7344 7.7344-3.4697 7.7344-7.7344-3.4697-7.7344-7.7344-7.7344zm0 13.75c-3.317 0-6.0156-2.6986-6.0156-6.0156s2.6986-6.0156 6.0156-6.0156 6.0156 2.6986 6.0156 6.0156-2.6986 6.0156-6.0156 6.0156z"/><path d="m25 24.1406c-2.3693 0-4.2969 1.9276-4.2969 4.2969 0 .4746.3848.8594.8594.8594s.8594-.3848.8594-.8594c0-1.4216 1.1565-2.5781 2.5781-2.5781.4745 0 .8594-.3848.8594-.8594s-.3849-.8594-.8594-.8594z"/><path d="m42.7031 17.2656h-1.7187c-.4746 0-.8594.3848-.8594.8594s.3848.8594.8594.8594h1.7187c.4746 0 .8594-.3848.8594-.8594s-.3848-.8594-.8594-.8594z"/><path d="m272-98h-109.82l-31.706-63.413c-5.117-10.231-15.399-16.587-26.834-16.587h-115.28c-11.437 0-21.719 6.356-26.834 16.588l-31.706 63.412h-19.82v-10c0-16.542-13.458-30-30-30h-20c-16.542 0-30 13.458-30 30v10h-10c-16.542 0-30 13.458-30 30v280c0 16.542 13.458 30 30 30h452c16.542 0 30-13.458 30-30 0-27.175 0-269.429 0-280 0-16.542-13.458-30-30-30zm-292.585-54.468c1.706-3.412 5.133-5.532 8.945-5.532h115.28c3.812 0 7.24 2.12 8.946 5.532l27.234 54.468h-187.64zm-129.415 44.468c0-5.514 4.486-10 10-10h20c5.514 0 10 4.486 10 10v10h-40zm-40 109.89999h126.451c-13.29 20.76101-20.451 45.09201-20.451 70.10001 0 25.01 7.162 49.243 20.45 70h-126.45zm236-39.89999c60.133 0 110 48.719 110 110 0 61.212-49.797 110-110 110-60.257 0-110-48.842-110-110 0-61.205 49.79-110 110-110zm236 250c0 5.514-4.486 10-10 10h-452c-5.514 0-10-4.486-10-10v-50h142.226c24.435 25.472 58.349 40 93.774 40 35.431 0 69.348-14.532 93.775-40h142.225zm0-70h-126.451c13.29-20.761 20.451-44.991 20.451-70s-7.161-49.239-20.451-70h126.451zm0-160h-142.226c-24.434-25.472-58.348-40-93.774-40-35.43 0-69.347 14.532-93.775 40h-142.225v-50c0-5.514 4.486-10 10-10h452c5.514 0 10 4.486 10 10z"/><path d="m46-18c-49.626 0-90 40.374-90 90s40.374 90 90 90 90-40.374 90-90-40.374-90-90-90zm0 160c-38.598 0-70-31.402-70-70s31.402-70 70-70 70 31.402 70 70-31.402 70-70 70z"/><path d="m46 22c-27.57 0-50 22.43-50 50 0 5.523 4.477 10 10 10s10-4.477 10-10c0-16.542 13.458-30 30-30 5.522 0 10-4.477 10-10s-4.478-10-10-10z"/><path d="m261-104h-109.82l-31.706-63.413c-5.117-10.231-15.399-16.587-26.834-16.587h-115.28c-11.437 0-21.719 6.356-26.834 16.588l-31.706 63.412h-19.82v-10c0-16.542-13.458-30-30-30h-20c-16.542 0-30 13.458-30 30v10h-10c-16.542 0-30 13.458-30 30v280c0 16.542 13.458 30 30 30h452c16.542 0 30-13.458 30-30 0-27.175 0-269.429 0-280 0-16.542-13.458-30-30-30zm-292.585-54.468c1.706-3.412 5.133-5.532 8.945-5.532h115.28c3.812 0 7.24 2.12 8.946 5.532l27.234 54.468h-187.64zm-129.415 44.468c0-5.514 4.486-10 10-10h20c5.514 0 10 4.486 10 10v10h-40zm-40 109.89999h126.451c-13.29 20.76101-20.451 45.09201-20.451 70.10001 0 25.01 7.162 49.243 20.45 70h-126.45zm236-39.89999c60.133 0 110 48.71899 110 110 0 61.212-49.797 110-110 110-60.257 0-110-48.842-110-110 0-61.205 49.79-110 110-110zm236 250c0 5.514-4.486 10-10 10h-452c-5.514 0-10-4.486-10-10v-50h142.226c24.435 25.472 58.348997 40 93.774 40 35.431 0 69.348-14.532 93.775-40h142.225zm0-70h-126.451c13.29-20.761 20.451-44.991 20.451-70s-7.161-49.239-20.451-70h126.451zm0-160h-142.226c-24.434-25.472-58.348-40-93.774-40-35.429993 0-69.347 14.532-93.775 40h-142.225v-50c0-5.514 4.486-10 10-10h452c5.514 0 10 4.486 10 10z"/><path d="m35-24c-49.626 0-90 40.374-90 90s40.374 90 90 90 90-40.374 90-90-40.374-90-90-90zm0 160c-38.598 0-70-31.402-70-70s31.402-70 70-70 70 31.402 70 70-31.402 70-70 70z"/><path d="m35 16c-27.57 0-50 22.43-50 50 0 5.523 4.477 10 10 10s10-4.477 10-10c0-16.542 13.458-30 30-30 5.522 0 10-4.477 10-10s-4.478-10-10-10z"/></g></svg>

<svg width="50" height="50" viewBox="0 0 50 50" fill="none" xmlns="http://www.w3.org/2000/svg">
<g clip-path="url(#clip0)">
<path d="M37.5469 17.2656C37.0725 17.2656 36.6875 17.6506 36.6875 18.125C36.6875 18.5994 37.0725 18.9844 37.5469 18.9844C38.0213 18.9844 38.4062 18.5994 38.4062 18.125C38.4062 17.6506 38.0213 17.2656 37.5469 17.2656Z" fill="black"/>
<path d="M44.4219 13.8281H34.9842L32.2595 8.37857C31.8197 7.49934 30.9361 6.95312 29.9534 6.95312H20.0466C19.0637 6.95312 18.1801 7.49934 17.7405 8.37866L15.0158 13.8281H13.3125V12.9688C13.3125 11.5472 12.156 10.3906 10.7344 10.3906H9.01562C7.59405 10.3906 6.4375 11.5472 6.4375 12.9688V13.8281H5.57812C4.15655 13.8281 3 14.9847 3 16.4062C3 18.7416 3 39.5603 3 40.4688C3 41.8903 4.15655 43.0469 5.57812 43.0469H44.4219C45.8435 43.0469 47 41.8903 47 40.4688C47 38.1334 47 17.3147 47 16.4062C47 14.9847 45.8435 13.8281 44.4219 13.8281ZM19.2779 9.14728C19.4245 8.85406 19.719 8.67188 20.0466 8.67188H29.9534C30.281 8.67188 30.5756 8.85406 30.7222 9.14728L33.0627 13.8281H16.9373L19.2779 9.14728ZM8.15625 12.9688C8.15625 12.4949 8.54177 12.1094 9.01562 12.1094H10.7344C11.2082 12.1094 11.5938 12.4949 11.5938 12.9688V13.8281H8.15625V12.9688ZM4.71875 22.4133H15.5856C14.4435 24.1974 13.8281 26.2884 13.8281 28.4375C13.8281 30.5868 14.4436 32.6693 15.5855 34.4531H4.71875V22.4133ZM25 18.9844C30.1677 18.9844 34.4531 23.1712 34.4531 28.4375C34.4531 33.6979 30.1737 37.8906 25 37.8906C19.8217 37.8906 15.5469 33.6933 15.5469 28.4375C15.5469 23.1777 19.8257 18.9844 25 18.9844ZM45.2812 40.4688C45.2812 40.9426 44.8957 41.3281 44.4219 41.3281H5.57812C5.10427 41.3281 4.71875 40.9426 4.71875 40.4688V36.1719H16.9413C19.0412 38.3609 21.9557 39.6094 25 39.6094C28.0449 39.6094 30.9596 38.3605 33.0588 36.1719H45.2812V40.4688ZM45.2812 34.4531H34.4144C35.5565 32.669 36.1719 30.5867 36.1719 28.4375C36.1719 26.2883 35.5565 24.206 34.4144 22.4219H45.2812V34.4531ZM45.2812 20.7031H33.0587C30.9589 18.5141 28.0444 17.2656 25 17.2656C21.9552 17.2656 19.0405 18.5145 16.9412 20.7031H4.71875V16.4062C4.71875 15.9324 5.10427 15.5469 5.57812 15.5469C6.35852 15.5469 43.2138 15.5469 44.4219 15.5469C44.8957 15.5469 45.2812 15.9324 45.2812 16.4062V20.7031Z" fill="black"/>
<path d="M27.5781 10.3906H22.4219C21.9472 10.3906 21.5625 10.7754 21.5625 11.25C21.5625 11.7246 21.9472 12.1094 22.4219 12.1094H27.5781C28.0527 12.1094 28.4375 11.7246 28.4375 11.25C28.4375 10.7754 28.0527 10.3906 27.5781 10.3906Z" fill="black"/>
<path d="M25 20.7031C20.7353 20.7031 17.2656 24.1728 17.2656 28.4375C17.2656 32.7022 20.7353 36.1719 25 36.1719C29.2647 36.1719 32.7344 32.7022 32.7344 28.4375C32.7344 24.1728 29.2647 20.7031 25 20.7031ZM25 34.4531C21.683 34.4531 18.9844 31.7545 18.9844 28.4375C18.9844 25.1205 21.683 22.4219 25 22.4219C28.317 22.4219 31.0156 25.1205 31.0156 28.4375C31.0156 31.7545 28.317 34.4531 25 34.4531Z" fill="black"/>
<path d="M25 24.1406C22.6307 24.1406 20.7031 26.0682 20.7031 28.4375C20.7031 28.9121 21.0879 29.2969 21.5625 29.2969C22.0371 29.2969 22.4219 28.9121 22.4219 28.4375C22.4219 27.0159 23.5784 25.8594 25 25.8594C25.4745 25.8594 25.8594 25.4746 25.8594 25C25.8594 24.5254 25.4745 24.1406 25 24.1406Z" fill="black"/>
<path d="M42.7031 17.2656H40.9844C40.5098 17.2656 40.125 17.6504 40.125 18.125C40.125 18.5996 40.5098 18.9844 40.9844 18.9844H42.7031C43.1777 18.9844 43.5625 18.5996 43.5625 18.125C43.5625 17.6504 43.1777 17.2656 42.7031 17.2656Z" fill="black"/>
<path d="M272 -98H162.18L130.474 -161.413C125.357 -171.644 115.075 -178 103.64 -178H-11.64C-23.077 -178 -33.359 -171.644 -38.474 -161.412L-70.18 -98H-90V-108C-90 -124.542 -103.458 -138 -120 -138H-140C-156.542 -138 -170 -124.542 -170 -108V-98H-180C-196.542 -98 -210 -84.542 -210 -68C-210 -40.825 -210 201.429 -210 212C-210 228.542 -196.542 242 -180 242H272C288.542 242 302 228.542 302 212C302 184.825 302 -57.429 302 -68C302 -84.542 288.542 -98 272 -98ZM-20.585 -152.468C-18.879 -155.88 -15.452 -158 -11.64 -158H103.64C107.452 -158 110.88 -155.88 112.586 -152.468L139.82 -98H-47.82L-20.585 -152.468ZM-150 -108C-150 -113.514 -145.514 -118 -140 -118H-120C-114.486 -118 -110 -113.514 -110 -108V-98H-150V-108ZM-190 1.89999H-63.549C-76.839 22.661 -84 46.992 -84 72C-84 97.01 -76.838 121.243 -63.55 142H-190V1.89999ZM46 -38C106.133 -38 156 10.719 156 72C156 133.212 106.203 182 46 182C-14.257 182 -64 133.158 -64 72C-64 10.795 -14.21 -38 46 -38ZM282 212C282 217.514 277.514 222 272 222H-180C-185.514 222 -190 217.514 -190 212V162H-47.774C-23.339 187.472 10.575 202 46 202C81.431 202 115.348 187.468 139.775 162H282V212ZM282 142H155.549C168.839 121.239 176 97.009 176 72C176 46.991 168.839 22.761 155.549 2H282V142ZM282 -18H139.774C115.34 -43.472 81.426 -58 46 -58C10.57 -58 -23.347 -43.468 -47.775 -18H-190V-68C-190 -73.514 -185.514 -78 -180 -78C-170.919 -78 257.942 -78 272 -78C277.514 -78 282 -73.514 282 -68V-18Z" fill="black"/>
<path d="M46 -18C-3.626 -18 -44 22.374 -44 72C-44 121.626 -3.626 162 46 162C95.626 162 136 121.626 136 72C136 22.374 95.626 -18 46 -18ZM46 142C7.402 142 -24 110.598 -24 72C-24 33.402 7.402 2 46 2C84.598 2 116 33.402 116 72C116 110.598 84.598 142 46 142Z" fill="black"/>
<path d="M46 22C18.43 22 -4 44.43 -4 72C-4 77.523 0.477 82 6 82C11.523 82 16 77.523 16 72C16 55.458 29.458 42 46 42C51.522 42 56 37.523 56 32C56 26.477 51.522 22 46 22Z" fill="black"/>
<path d="M261 -104H151.18L119.474 -167.413C114.357 -177.644 104.075 -184 92.64 -184H-22.64C-34.077 -184 -44.359 -177.644 -49.474 -167.412L-81.18 -104H-101V-114C-101 -130.542 -114.458 -144 -131 -144H-151C-167.542 -144 -181 -130.542 -181 -114V-104H-191C-207.542 -104 -221 -90.542 -221 -74C-221 -46.825 -221 195.429 -221 206C-221 222.542 -207.542 236 -191 236H261C277.542 236 291 222.542 291 206C291 178.825 291 -63.429 291 -74C291 -90.542 277.542 -104 261 -104ZM-31.585 -158.468C-29.879 -161.88 -26.452 -164 -22.64 -164H92.64C96.452 -164 99.88 -161.88 101.586 -158.468L128.82 -104H-58.82L-31.585 -158.468ZM-161 -114C-161 -119.514 -156.514 -124 -151 -124H-131C-125.486 -124 -121 -119.514 -121 -114V-104H-161V-114ZM-201 -4.10001H-74.549C-87.839 16.661 -95 40.992 -95 66C-95 91.01 -87.838 115.243 -74.55 136H-201V-4.10001ZM35 -44C95.133 -44 145 4.71899 145 66C145 127.212 95.203 176 35 176C-25.257 176 -75 127.158 -75 66C-75 4.795 -25.21 -44 35 -44ZM271 206C271 211.514 266.514 216 261 216H-191C-196.514 216 -201 211.514 -201 206V156H-58.774C-34.339 181.472 -0.425003 196 35 196C70.431 196 104.348 181.468 128.775 156H271V206ZM271 136H144.549C157.839 115.239 165 91.009 165 66C165 40.991 157.839 16.761 144.549 -4H271V136ZM271 -24H128.774C104.34 -49.472 70.426 -64 35 -64C-0.429993 -64 -34.347 -49.468 -58.775 -24H-201V-74C-201 -79.514 -196.514 -84 -191 -84C-181.919 -84 246.942 -84 261 -84C266.514 -84 271 -79.514 271 -74V-24Z" fill="black"/>
<path d="M35 -24C-14.626 -24 -55 16.374 -55 66C-55 115.626 -14.626 156 35 156C84.626 156 125 115.626 125 66C125 16.374 84.626 -24 35 -24ZM35 136C-3.598 136 -35 104.598 -35 66C-35 27.402 -3.598 -4 35 -4C73.598 -4 105 27.402 105 66C105 104.598 73.598 136 35 136Z" fill="black"/>
<path d="M35 16C7.43 16 -15 38.43 -15 66C-15 71.523 -10.523 76 -5 76C0.523 76 5 71.523 5 66C5 49.458 18.458 36 35 36C40.522 36 45 31.523 45 26C45 20.477 40.522 16 35 16Z" fill="black"/>
</g>
<defs>
<clipPath id="clip0">
<rect width="50" height="50" fill="white"/>
</clipPath>
</defs>
</svg>
